X:7
%%scale 0.65
T:Triumphavi
C:Michael East
%%score [1 | 2 |3 |4 |5]
M:4/2
L:1/4
K:F
V:1 name="Treble I"
z8 | z4 z2 A2 | D B>A G F>G A d-|d/c/ B A2 G/A/ B2 c | d e>d d2 ^c d2 | z f _e d>c B A>A|
B/c/ d2 c d2 z2 | z2 e2 A f>e d | ^c>d e a>g f e>e | f3 d/e/ f2 e2 | z =B E c>B A B/c/ d | ^c d2 c d =c2 B |
A2 e A2 f3/ e/d/e/ |f e e2 e4 | z4 =B2 E c-|c/=B/ A2  ^G A4 | A2 z2 z2 d2 | A f>e d ^c d e>e |
d2 ^F G A2 z2 | z8 | z4 z2 d2-| d d A2 z2 g2-  |g f _e4 d2 |c4 d4 | z2 c3 c B2 |
A4 z2 e2-|e e d4 ^c2 | d4 z4 | z2 d3 d d2 | _e f g3 f e2 | d4 d4 ||
z f>f f _e d c2 | !mediumphrase!d2 d c>d B A ^F-|F/^F/ F G A B c d/e/ f-|f/_e/ d>c d c B e2|d>c B A>B G ^F2 |
G g>f _e d2 z d/e/| f2 f2 A/B/ c2 d | c B2 A !mediumphrase! B2 B B-| B B A4 =B2 | ^c2 d2 e4 | ^f2 d _e2 =f>e c | d2 z2 z f d B |
z g e c z a ^f d-| d/A/B/G/ ^F G A G2 F |!mediumphrase! G2 G2 c3 c |c2 B/c/ d2 c/B/ c2 | d4 !mediumphrase! G2 g2-| g g g2 f2 _e2 | d4 c3 d |
e2 A a2 g f2 | e4 d4 | z2 g2 ^f2 d2 | d4 d2 z2 | z f d f d c/d/ c B | A2 z2 z4 | z2 a g2 f e d |
^c2 A2 =B4 |^c  !mediumphrase! y  =c A c A G/A/ G F | E2 z2 z4 | z4 z e d c |=B4 B3 A | ^G2 =g ^f e d c2-| c2 d2 c4 |
c3 B A3 =B | c2 =B2 A2 d2-|d c =B2 A2 A2-| A G ^F2 G3 F | E4 z2 A2 | =B2 d4 ^c2 | d2 e4 ^f2 |
e4 g2 ^f2 | e2 A2 z2 A2 | d c =B2 A4 | G2 D2 z4 | z2 A2 =B4 | ^c2 d4 c2 | Hd8 |]
V:2 name="Treble II"
d2 A f>e d ^c2 |d d>f  e f c f f-| f g d4 d2 | D4 z4 | z4 e2 A f-| f/e/ d c B A G A2 |
G/A/ B>A G2 F/G/ E A | A8 | z4 z2 e A-| A d>c B A =B/A/ ^G A-|A ^G A A>=G F E D | E A G E A/=B/c/d/ e d |
^c d e2 d2 d2-|d c/d/ =B A z2 B2 | E c>=B A ^G>A B e-| e/d/ c =B>B c c2 d | e2 d d3/ c/B/A/ B/A/G/F/ | E D3/ E/F/G/ A4 |
A2 d3 d G2 |Z2 | z2 d3 c B2 | G2 c4 B2-| B2 A2 B2 f2-| f f _e2 d4 |
z2 d3 c B2 | A4 z4 | z2 d3 d c2 | B>c d e f4 | _e2 d2 c3 B | A G A2 G4||
z d>d d g f f2 | !mediumphrase!f2 f f2 d d A-|A/A/ A B ^F G A B>c | d>e f f>_e d  g2 | f>_e d c>d B A2 |
G _e>d c B/c/d/e/ f2 | z A/B/ c d c2 z F/G/ | A B c2 d2 !mediumphrase! y _e d | d3 d d2 d e-| e e d4 ^c2 | d2 d B>c d c2 |
B2 z f d B z f | e c z g ^f d3/ A/B/G/ | ^F G A d _e2 d>c | !mediumphrase! =B2 d e f3 f | f2 d2 g4 | ^f4 d2 !mediumphrase! y  _e2-| e _e e2 d2 c2-|
c2 =B2 c2 G2 | z4 z2 A a-| a g e2 ^f2 d2 | d8 | z8 | z A B A B A/B/ A G | ^F f d f d c/d/ c B |
A2 z2 z a g f | e8 | e2 z2 z4 | z e f e f e/f/ e d | !mediumphrase!^c2 e d2 =c =B A | ^G E e4 ^d2 | e3 ^f g2 =f2-|
f A B4 A2 | G4 F G A2-| A2 ^G2 A4 | z8 | z2 A2 =B2 d2-|d2 ^c2 d4 | d3 e ^f2 e f | g2 G2 A4-|
A4 z2 d2 | e2 ^f2 e4  | z4 z2 A2 | =B2 d4 ^c2 | =B2 A2 G2 g2-| g2 ^f2 e4 | Hd8 |]
V:3 name="Tenor I" clef=alto middle=c octave=-1
Z2 | z4 a2 d b-|b/a/ g2 ^f g g>"\="f _e |d  G A4 d a |b2 a g ^f g2 f |g2 g>a b a2 a-|
a/g/ f e>e f d z2 | e2 A f>e d2 ^c |d2 z2 A d2 c | =B2 c A a2 z f/g/|a2 z e/g/ f e>f g-|
g f e2 f/g/ a2 g | z a e c'>=b a2 ^g| a a>g f e>^f ^g a-|a/=b/c'/a/ b e2 a>g f | e>e f d z4 |
z d A a>g f e2 |^f2 d2 z2 b2-|b b a2 g3 a | b2 a4 g2 |^f4 g3 "\="f |_e4 f4-|f4 B4|
c g a4 g2-|g g ^f2 g4 |z2 a3 a a2 | d>e f g a4 | g>a b4 a2-|a2 g2 a2 g2-|g2 ^f2 g4 ||
z b>b b g/a/ b2 a | !mediumphrase!b2 b a>b g ^f d-|d/d/ d g d g f B2 |B b>a b f g _e/f/g/a/ |b2 b f2 g d2 |_e/d/ c>d e/f/g/a/ b a b |
f f/g/ a b f a/b/ c' b |  a f2 f !mediumphrase! f2 g f-|f f ^f4 g2-|g2 f2 e4 | d2 b/a/ g>a b2 a |b2 z2 z4|
Z2| z2 b2 a3 a |a2 b2 g4 | a4 !mediumphrase! b2 g2-|g g g2 d2 _e c |d4 e3 d | ^c2 f2 e2 d2-|
d2 ^c2 d2 d d'-|d' c' b2 a2 g2 | ^f2 d2 d3 g | ^f d2 d d4 | z a b a b a/b/ a g | !mediumphrase!^f2 =f g2 a e f/d/ |
e2 a4 ^g2 |a2 z2 z4| z c' a c' a g/a/ g f | e2 g g2 g g e | e3 ^f g2 f2 |e6 a2 | a/g/ f2 g2 g f2-|
f2 e2 f3 e/d/ | e6 ^f2 | g3 ^f e d e2 | ^f2 d2 z2 =b a | g4 a4 | g4 z2 a2 |=b4 ^c'2 d'2-|
d'2 ^c'2 d'2 d2 |a g ^f g a4-|a2 d4 d'2-|d' c' =b2 a4 |g2 d2 z2 g2 |e2 ^f g a3 g |H^f8|]
V:4 name="Tenor II" clef=alto middle=c octave=-1
Z3 | z2 d2 G _e>d c | B/G/ g2 f e>e f d | d/c/ B c G d4 | d2 G2 z d A f-|
f/e/ d2 ^c d4 | z4 z2 A2 | D B>A G F D E2-|E2 A4 G/A/ B | A f e2 d A/=B/ c G |
A d2 ^c d2 z2 | z2 z e>d c =B>B | c A z2 z2 e2 | e4 z4 | z a d _b3/ a/g/f/ g/f/e/d/ |^c d/ a g/ f e d2 c |
d3 e ^f2 g2 | z2 d3 d c2 | d2 c3 d B2 | A4 z4 | z8| z2 f3 _e d2 | c4 d4-|
d4 G2 g2-| g g f2 e4 | d4 z2 A2 | B2 G2 F>G A B | c2 d2 z2 G2 | d3 c =B4 ||
z B>B B _e B f2 | !mediumphrase!B2 B c2 G A2 | Z4 | z4 z2 z d/_e/ | f d c2 !mediumphrase!B2 B/c/ d-|
d d d3 c =B2 | A8 | A d g/f/ _e2 B f2-| !mediumphrase!f f d B f2 z2 | z8 | z d3/ A/B/G/ c3/ B/A/G/ A |
!mediumphrase!G2 g2 f3 f | f2 g2 _e4 | d4 z2 G2 | G3 A B2 G2 | G4 G4 | z2 A2 A4-|A4 A2 B2 |
A2 G d2 c B2 | !mediumphrase!A A B A B A/B/ A G | A2 z2 z4 | d8 | !mediumphrase!d2 c2 c c>c A | A2 c2 =B4 |
!mediumphrase!A e f e f e/f/ e d | ^c A2 A A4 | !mediumphrase!A2 G d2 e =B c/A/ |=B2 G A B4 | =B4 c2 f2-|
f2 B2 c4-|c4 F4 | z4 z2 A2 | =B2 d4 ^c2 | d4 z4 | z2 e2 ^f4 | g2 G2 A4 | Z2 |
z4 e4 | ^f2 g4 f2 | g3 ^f e4 | d6 e2-|e2 A2 A4 | HA8 |]
V:5 clef=bass name=Bass middle=d octave=-2
z4 z2 a2 | d b>a g f f3/ e/d/c/ | B/A/ G3/ A/B/c/ d4 | Z2 | z4 z2 d2 |
G g>f _e d2 ^c d | A4 d4 | a8 | Z3 | z2 a2 d d'>c' b | a2 ^g a e4 |
a2 A2 e4 | z2 e2 A f>e d | ^c2 d2 G4 | A6 A2 | d4 z2 g2-|
g g f2 _e4 | d8 | d4 z4 | Z3 | d3 c B2 G2 |
A8 | B>c d e f4 | g4  d4 | c2 B2 c4 | d4 G4 ||
z8 | z2 b f2 g d2 | Z4 | z4 z f/g/ a b | f4 !mediumphrase! B2 _e B-| B B d4 G2 |
A8 | d2 z2 z2 z f | d B b4 b2 | c'4 d'4 | d4 c2 d2 | g4 z4 |
z8 | z2 d2 g f _e2-|e _e e2 B2 c2 | G4 c3 B | A2 d2 ^c2 d2 | A4 d2 g2 |
^f2 g2 d2 G2 | !mediumphrase! d d g ^f g f/g/ f e  | d4 z4 | z8 | z2 f e2 f c d |
a4 e4 | a8 | A4 z4 | z2 c =B2 c G A | e4 =B4 | e4 z4 |
z8 | z2 c2 d e f2 | e3 d ^c2 d2 | G4 A4 | Z4 | A4 =B4 |
 ^c2 d4 c2 | d8 | z2 g2 a4 | =b2 ^f2 g4 | a4 A4 | Hd8 |]

